/* XPM */
static char *metal_wall[] = {
/* width height num_colors chars_per_pixel */
"64 64 4 1",
/* colors */
"  c #444444",
". c #777777",
"X c #AAAAAA",
"o c #DDDDDD",
/* pixels */
" oooooooooooooooooooooooooooooooooooooooooooooooooooooooooooooo. ",
" oX..........................................................X. ",
" o.  ..                                                  ..  X. ",
" o. .XX.                                                .XX. X. ",
" o. .XX.                                                .XX. X. ",
" o.  ..                                                  ..  X. ",
" o.                                                          X. ",
" o.                                                          X. ",
" o.                                                          X. ",
" o.                                                          X. ",
" o.                                                          X. ",
" o.                                                          X. ",
" o.                                                          X. ",
" o.                                                          X. ",
" o.                                                          X. ",
" o.                                                          X. ",
" o.                                                          X. ",
" o.                                                          X. ",
" o.                                                          X. ",
" o.                                                          X. ",
" o.                                                          X. ",
" o.                                                          X. ",
" o.                                                          X. ",
" o.                                                          X. ",
" o.                                                          X. ",
" o.                                                          X. ",
" o.                                                          X. ",
" o.                                                          X. ",
" o.                                                          X. ",
" o.                                                          X. ",
" o.                                                          X. ",
" o.                                                          X. ",
" o.                                                          X. ",
" o.                                                          X. ",
" o.                                                          X. ",
" o.                                                          X. ",
" o.                                                          X. ",
" o.                                                          X. ",
" o.                                                          X. ",
" o.                                                          X. ",
" o.                                                          X. ",
" o.                                                          X. ",
" o.                                                          X. ",
" o.                                                          X. ",
" o.                                                          X. ",
" o.                                                          X. ",
" o.                                                          X. ",
" o.                                                          X. ",
" o.                                                          X. ",
" o.                                                          X. ",
" o.                                                          X. ",
" o.                                                          X. ",
" o.                                                          X. ",
" o.                                                          X. ",
" o.                                                          X. ",
" o.                                                          X. ",
" o.                                                          X. ",
" o.                                                          X. ",
" o.  ..                                                  ..  X. ",
" o. .XX.                                                .XX. X. ",
" o. .XX.                                                .XX. X. ",
" o.  ..                                                  ..  X. ",
" oXXXXXXXXXXXXXXXXXXXXXXXXXXXXXXXXXXXXXXXXXXXXXXXXXXXXXXXXXXXX. ",
" .............................................................. "
};