/* XPM */
static char *north[] = {
/* width height num_colors chars_per_pixel */
"64 64 4 1",
/* colors */
". c #8B0000",  /* mortar/grout */
"# c #A52A2A",  /* dark */
"o c #B22222",  /* medium */
"O c #CD5C5C",  /* light */
/* pixels */
"#8B0000#8B0000#8B0000#8B0000#8B0000#8B0000#8B0000#8B0000#8B0000#8B0000#8B0000#8B0000#8B0000#8B0000#8B0000#8B0000#8B0000#8B0000#8B0000#8B0000#8B0000#8B0000#8B0000#8B0000#8B0000#8B0000#8B0000#8B0000#8B0000#8B0000#8B0000#8B0000#8B0000#8B0000#8B0000#8B0000#8B0000#8B0000#8B0000#8B0000#8B0000#8B0000#8B0000#8B0000#8B0000#8B0000#8B0000#8B0000#8B0000#8B0000#8B0000#8B0000#8B0000#8B0000#8B0000#8B0000#8B0000#8B0000#8B0000#8B0000#8B0000#8B0000#8B0000#8B0000",
"#8B0000#A52A2A#A52A2A#A52A2A#A52A2A#A52A2A#A52A2A#A52A2A#A52A2A#A52A2A#A52A2A#A52A2A#A52A2A#A52A2A#A52A2A#A52A2A#8B0000#A52A2A#A52A2A#A52A2A#A52A2A#A52A2A#A52A2A#A52A2A#A52A2A#A52A2A#A52A2A#A52A2A#A52A2A#A52A2A#A52A2A#A52A2A#8B0000#A52A2A#A52A2A#A52A2A#A52A2A#A52A2A#A52A2A#A52A2A#A52A2A#A52A2A#A52A2A#A52A2A#A52A2A#A52A2A#A52A2A#A52A2A#8B0000#A52A2A#A52A2A#A52A2A#A52A2A#A52A2A#A52A2A#A52A2A#A52A2A#A52A2A#A52A2A#A52A2A#A52A2A#A52A2A#A52A2A#A52A2A",
"#8B0000#A52A2A#CD5C5C#CD5C5C#CD5C5C#CD5C5C#CD5C5C#CD5C5C#CD5C5C#CD5C5C#CD5C5C#CD5C5C#CD5C5C#CD5C5C#CD5C5C#A52A2A#8B0000#A52A2A#CD5C5C#CD5C5C#CD5C5C#CD5C5C#CD5C5C#CD5C5C#CD5C5C#CD5C5C#CD5C5C#CD5C5C#CD5C5C#CD5C5C#CD5C5C#A52A2A#8B0000#A52A2A#CD5C5C#CD5C5C#CD5C5C#CD5C5C#CD5C5C#CD5C5C#CD5C5C#CD5C5C#CD5C5C#CD5C5C#CD5C5C#CD5C5C#CD5C5C#A52A2A#8B0000#A52A2A#CD5C5C#CD5C5C#CD5C5C#CD5C5C#CD5C5C#CD5C5C#CD5C5C#CD5C5C#CD5C5C#CD5C5C#CD5C5C#CD5C5C#CD5C5C#A52A2A",
"#8B0000#A52A2A#CD5C5C#CD5C5C#CD5C5C#CD5C5C#CD5C5C#CD5C5C#CD5C5C#CD5C5C#CD5C5C#CD5C5C#CD5C5C#CD5C5C#CD5C5C#A52A2A#8B0000#A52A2A#CD5C5C#CD5C5C#CD5C5C#CD5C5C#CD5C5C#CD5C5C#CD5C5C#CD5C5C#CD5C5C#CD5C5C#CD5C5C#CD5C5C#CD5C5C#A52A2A#8B0000#A52A2A#CD5C5C#CD5C5C#CD5C5C#CD5C5C#CD5C5C#CD5C5C#CD5C5C#CD5C5C#CD5C5C#CD5C5C#CD5C5C#CD5C5C#CD5C5C#A52A2A#8B0000#A52A2A#CD5C5C#CD5C5C#CD5C5C#CD5C5C#CD5C5C#CD5C5C#CD5C5C#CD5C5C#CD5C5C#CD5C5C#CD5C5C#CD5C5C#CD5C5C#A52A2A",
"#8B0000#A52A2A#B22222#B22222#B22222#B22222#B22222#B22222#B22222#B22222#B22222#B22222#B22222#B22222#B22222#A52A2A#8B0000#A52A2A#B22222#B22222#B22222#B22222#B22222#B22222#B22222#B22222#B22222#B22222#B22222#B22222#B22222#A52A2A#8B0000#A52A2A#B22222#B22222#B22222#B22222#B22222#B22222#B22222#B22222#B22222#B22222#B22222#B22222#B22222#A52A2A#8B0000#A52A2A#B22222#B22222#B22222#B22222#B22222#B22222#B22222#B22222#B22222#B22222#B22222#B22222#B22222#A52A2A",
"#8B0000#A52A2A#B22222#B22222#B22222#B22222#B22222#B22222#B22222#B22222#B22222#B22222#B22222#B22222#B22222#A52A2A#8B0000#A52A2A#B22222#B22222#B22222#B22222#B22222#B22222#B22222#B22222#B22222#B22222#B22222#B22222#B22222#A52A2A#8B0000#A52A2A#B22222#B22222#B22222#B22222#B22222#B22222#B22222#B22222#B22222#B22222#B22222#B22222#B22222#A52A2A#8B0000#A52A2A#B22222#B22222#B22222#B22222#B22222#B22222#B22222#B22222#B22222#B22222#B22222#B22222#B22222#A52A2A",
"#8B0000#A52A2A#B22222#B22222#B22222#B22222#B22222#B22222#B22222#B22222#B22222#B22222#B22222#B22222#B22222#A52A2A#8B0000#A52A2A#B22222#B22222#B22222#B22222#B22222#B22222#B22222#B22222#B22222#B22222#B22222#B22222#B22222#A52A2A#8B0000#A52A2A#B22222#B22222#B22222#B22222#B22222#B22222#B22222#B22222#B22222#B22222#B22222#B22222#B22222#A52A2A#8B0000#A52A2A#B22222#B22222#B22222#B22222#B22222#B22222#B22222#B22222#B22222#B22222#B22222#B22222#B22222#A52A2A",
"#8B0000#A52A2A#A52A2A#A52A2A#A52A2A#A52A2A#A52A2A#A52A2A#A52A2A#A52A2A#A52A2A#A52A2A#A52A2A#A52A2A#A52A2A#A52A2A#8B0000#A52A2A#A52A2A#A52A2A#A52A2A#A52A2A#A52A2A#A52A2A#A52A2A#A52A2A#A52A2A#A52A2A#A52A2A#A52A2A#A52A2A#A52A2A#8B0000#A52A2A#A52A2A#A52A2A#A52A2A#A52A2A#A52A2A#A52A2A#A52A2A#A52A2A#A52A2A#A52A2A#A52A2A#A52A2A#A52A2A#A52A2A#8B0000#A52A2A#A52A2A#A52A2A#A52A2A#A52A2A#A52A2A#A52A2A#A52A2A#A52A2A#A52A2A#A52A2A#A52A2A#A52A2A#A52A2A#A52A2A",
"#8B0000#8B0000#8B0000#8B0000#8B0000#8B0000#8B0000#8B0000#8B0000#8B0000#8B0000#8B0000#8B0000#8B0000#8B0000#8B0000#8B0000#8B0000#8B0000#8B0000#8B0000#8B0000#8B0000#8B0000#8B0000#8B0000#8B0000#8B0000#8B0000#8B0000#8B0000#8B0000#8B0000#8B0000#8B0000#8B0000#8B0000#8B0000#8B0000#8B0000#8B0000#8B0000#8B0000#8B0000#8B0000#8B0000#8B0000#8B0000#8B0000#8B0000#8B0000#8B0000#8B0000#8B0000#8B0000#8B0000#8B0000#8B0000#8B0000#8B0000#8B0000#8B0000#8B0000#8B0000",
"#A52A2A#A52A2A#A52A2A#A52A2A#A52A2A#A52A2A#A52A2A#A52A2A#8B0000#A52A2A#A52A2A#A52A2A#A52A2A#A52A2A#A52A2A#A52A2A#A52A2A#A52A2A#A52A2A#A52A2A#A52A2A#A52A2A#A52A2A#A52A2A#8B0000#A52A2A#A52A2A#A52A2A#A52A2A#A52A2A#A52A2A#A52A2A#A52A2A#A52A2A#A52A2A#A52A2A#A52A2A#A52A2A#A52A2A#A52A2A#8B0000#A52A2A#A52A2A#A52A2A#A52A2A#A52A2A#A52A2A#A52A2A#A52A2A#A52A2A#A52A2A#A52A2A#A52A2A#A52A2A#A52A2A#A52A2A#8B0000#A52A2A#A52A2A#A52A2A#A52A2A#A52A2A#A52A2A#A52A2A",
"#CD5C5C#CD5C5C#CD5C5C#CD5C5C#CD5C5C#CD5C5C#CD5C5C#A52A2A#8B0000#A52A2A#CD5C5C#CD5C5C#CD5C5C#CD5C5C#CD5C5C#CD5C5C#CD5C5C#CD5C5C#CD5C5C#CD5C5C#CD5C5C#CD5C5C#CD5C5C#A52A2A#8B0000#A52A2A#CD5C5C#CD5C5C#CD5C5C#CD5C5C#CD5C5C#CD5C5C#CD5C5C#CD5C5C#CD5C5C#CD5C5C#CD5C5C#CD5C5C#CD5C5C#A52A2A#8B0000#A52A2A#CD5C5C#CD5C5C#CD5C5C#CD5C5C#CD5C5C#CD5C5C#CD5C5C#CD5C5C#CD5C5C#CD5C5C#CD5C5C#CD5C5C#CD5C5C#A52A2A#8B0000#A52A2A#CD5C5C#CD5C5C#CD5C5C#CD5C5C#CD5C5C#CD5C5C",
"#CD5C5C#CD5C5C#CD5C5C#CD5C5C#CD5C5C#CD5C5C#CD5C5C#A52A2A#8B0000#A52A2A#CD5C5C#CD5C5C#CD5C5C#CD5C5C#CD5C5C#CD5C5C#CD5C5C#CD5C5C#CD5C5C#CD5C5C#CD5C5C#CD5C5C#CD5C5C#A52A2A#8B0000#A52A2A#CD5C5C#CD5C5C#CD5C5C#CD5C5C#CD5C5C#CD5C5C#CD5C5C#CD5C5C#CD5C5C#CD5C5C#CD5C5C#CD5C5C#CD5C5C#A52A2A#8B0000#A52A2A#CD5C5C#CD5C5C#CD5C5C#CD5C5C#CD5C5C#CD5C5C#CD5C5C#CD5C5C#CD5C5C#CD5C5C#CD5C5C#CD5C5C#CD5C5C#A52A2A#8B0000#A52A2A#CD5C5C#CD5C5C#CD5C5C#CD5C5C#CD5C5C#CD5C5C",
"#B22222#B22222#B22222#B22222#B22222#B22222#B22222#A52A2A#8B0000#A52A2A#B22222#B22222#B22222#B22222#B22222#B22222#B22222#B22222#B22222#B22222#B22222#B22222#B22222#A52A2A#8B0000#A52A2A#B22222#B22222#B22222#B22222#B22222#B22222#B22222#B22222#B22222#B22222#B22222#B22222#B22222#A52A2A#8B0000#A52A2A#B22222#B22222#B22222#B22222#B22222#B22222#B22222#B22222#B22222#B22222#B22222#B22222#B22222#A52A2A#8B0000#A52A2A#B22222#B22222#B22222#B22222#B22222#B22222",
"#B22222#B22222#B22222#B22222#B22222#B22222#B22222#A52A2A#8B0000#A52A2A#B22222#B22222#B22222#B22222#B22222#B22222#B22222#B22222#B22222#B22222#B22222#B22222#B22222#A52A2A#8B0000#A52A2A#B22222#B22222#B22222#B22222#B22222#B22222#B22222#B22222#B22222#B22222#B22222#B22222#B22222#A52A2A#8B0000#A52A2A#B22222#B22222#B22222#B22222#B22222#B22222#B22222#B22222#B22222#B22222#B22222#B22222#B22222#A52A2A#8B0000#A52A2A#B22222#B22222#B22222#B22222#B22222#B22222",
"#B22222#B22222#B22222#B22222#B22222#B22222#B22222#A52A2A#8B0000#A52A2A#B22222#B22222#B22222#B22222#B22222#B22222#B22222#B22222#B22222#B22222#B22222#B22222#B22222#A52A2A#8B0000#A52A2A#B22222#B22222#B22222#B22222#B22222#B22222#B22222#B22222#B22222#B22222#B22222#B22222#B22222#A52A2A#8B0000#A52A2A#B22222#B22222#B22222#B22222#B22222#B22222#B22222#B22222#B22222#B22222#B22222#B22222#B22222#A52A2A#8B0000#A52A2A#B22222#B22222#B22222#B22222#B22222#B22222",
"#A52A2A#A52A2A#A52A2A#A52A2A#A52A2A#A52A2A#A52A2A#A52A2A#8B0000#A52A2A#A52A2A#A52A2A#A52A2A#A52A2A#A52A2A#A52A2A#A52A2A#A52A2A#A52A2A#A52A2A#A52A2A#A52A2A#A52A2A#A52A2A#8B0000#A52A2A#A52A2A#A52A2A#A52A2A#A52A2A#A52A2A#A52A2A#A52A2A#A52A2A#A52A2A#A52A2A#A52A2A#A52A2A#A52A2A#A52A2A#8B0000#A52A2A#A52A2A#A52A2A#A52A2A#A52A2A#A52A2A#A52A2A#A52A2A#A52A2A#A52A2A#A52A2A#A52A2A#A52A2A#A52A2A#A52A2A#8B0000#A52A2A#A52A2A#A52A2A#A52A2A#A52A2A#A52A2A#A52A2A",
"#8B0000#8B0000#8B0000#8B0000#8B0000#8B0000#8B0000#8B0000#8B0000#8B0000#8B0000#8B0000#8B0000#8B0000#8B0000#8B0000#8B0000#8B0000#8B0000#8B0000#8B0000#8B0000#8B0000#8B0000#8B0000#8B0000#8B0000#8B0000#8B0000#8B0000#8B0000#8B0000#8B0000#8B0000#8B0000#8B0000#8B0000#8B0000#8B0000#8B0000#8B0000#8B0000#8B0000#8B0000#8B0000#8B0000#8B0000#8B0000#8B0000#8B0000#8B0000#8B0000#8B0000#8B0000#8B0000#8B0000#8B0000#8B0000#8B0000#8B0000#8B0000#8B0000#8B0000#8B0000",
"#8B0000#A52A2A#A52A2A#A52A2A#A52A2A#A52A2A#A52A2A#A52A2A#A52A2A#A52A2A#A52A2A#A52A2A#A52A2A#A52A2A#A52A2A#A52A2A#8B0000#A52A2A#A52A2A#A52A2A#A52A2A#A52A2A#A52A2A#A52A2A#A52A2A#A52A2A#A52A2A#A52A2A#A52A2A#A52A2A#A52A2A#A52A2A#8B0000#A52A2A#A52A2A#A52A2A#A52A2A#A52A2A#A52A2A#A52A2A#A52A2A#A52A2A#A52A2A#A52A2A#A52A2A#A52A2A#A52A2A#A52A2A#8B0000#A52A2A#A52A2A#A52A2A#A52A2A#A52A2A#A52A2A#A52A2A#A52A2A#A52A2A#A52A2A#A52A2A#A52A2A#A52A2A#A52A2A#A52A2A",
"#8B0000#A52A2A#CD5C5C#CD5C5C#CD5C5C#CD5C5C#CD5C5C#CD5C5C#CD5C5C#CD5C5C#CD5C5C#CD5C5C#CD5C5C#CD5C5C#CD5C5C#A52A2A#8B0000#A52A2A#CD5C5C#CD5C5C#CD5C5C#CD5C5C#CD5C5C#CD5C5C#CD5C5C#CD5C5C#CD5C5C#CD5C5C#CD5C5C#CD5C5C#CD5C5C#A52A2A#8B0000#A52A2A#CD5C5C#CD5C5C#CD5C5C#CD5C5C#CD5C5C#CD5C5C#CD5C5C#CD5C5C#CD5C5C#CD5C5C#CD5C5C#CD5C5C#CD5C5C#A52A2A#8B0000#A52A2A#CD5C5C#CD5C5C#CD5C5C#CD5C5C#CD5C5C#CD5C5C#CD5C5C#CD5C5C#CD5C5C#CD5C5C#CD5C5C#CD5C5C#CD5C5C#A52A2A",
"#8B0000#A52A2A#CD5C5C#CD5C5C#CD5C5C#CD5C5C#CD5C5C#CD5C5C#CD5C5C#CD5C5C#CD5C5C#CD5C5C#CD5C5C#CD5C5C#CD5C5C#A52A2A#8B0000#A52A2A#CD5C5C#CD5C5C#CD5C5C#CD5C5C#CD5C5C#CD5C5C#CD5C5C#CD5C5C#CD5C5C#CD5C5C#CD5C5C#CD5C5C#CD5C5C#A52A2A#8B0000#A52A2A#CD5C5C#CD5C5C#CD5C5C#CD5C5C#CD5C5C#CD5C5C#CD5C5C#CD5C5C#CD5C5C#CD5C5C#CD5C5C#CD5C5C#CD5C5C#A52A2A#8B0000#A52A2A#CD5C5C#CD5C5C#CD5C5C#CD5C5C#CD5C5C#CD5C5C#CD5C5C#CD5C5C#CD5C5C#CD5C5C#CD5C5C#CD5C5C#CD5C5C#A52A2A",
"#8B0000#A52A2A#B22222#B22222#B22222#B22222#B22222#B22222#B22222#B22222#B22222#B22222#B22222#B22222#B22222#A52A2A#8B0000#A52A2A#B22222#B22222#B22222#B22222#B22222#B22222#B22222#B22222#B22222#B22222#B22222#B22222#B22222#A52A2A#8B0000#A52A2A#B22222#B22222#B22222#B22222#B22222#B22222#B22222#B22222#B22222#B22222#B22222#B22222#B22222#A52A2A#8B0000#A52A2A#B22222#B22222#B22222#B22222#B22222#B22222#B22222#B22222#B22222#B22222#B22222#B22222#B22222#A52A2A",
"#8B0000#A52A2A#B22222#B22222#B22222#B22222#B22222#B22222#B22222#B22222#B22222#B22222#B22222#B22222#B22222#A52A2A#8B0000#A52A2A#B22222#B22222#B22222#B22222#B22222#B22222#B22222#B22222#B22222#B22222#B22222#B22222#B22222#A52A2A#8B0000#A52A2A#B22222#B22222#B22222#B22222#B22222#B22222#B22222#B22222#B22222#B22222#B22222#B22222#B22222#A52A2A#8B0000#A52A2A#B22222#B22222#B22222#B22222#B22222#B22222#B22222#B22222#B22222#B22222#B22222#B22222#B22222#A52A2A",
"#8B0000#A52A2A#B22222#B22222#B22222#B22222#B22222#B22222#B22222#B22222#B22222#B22222#B22222#B22222#B22222#A52A2A#8B0000#A52A2A#B22222#B22222#B22222#B22222#B22222#B22222#B22222#B22222#B22222#B22222#B22222#B22222#B22222#A52A2A#8B0000#A52A2A#B22222#B22222#B22222#B22222#B22222#B22222#B22222#B22222#B22222#B22222#B22222#B22222#B22222#A52A2A#8B0000#A52A2A#B22222#B22222#B22222#B22222#B22222#B22222#B22222#B22222#B22222#B22222#B22222#B22222#B22222#A52A2A",
"#8B0000#A52A2A#A52A2A#A52A2A#A52A2A#A52A2A#A52A2A#A52A2A#A52A2A#A52A2A#A52A2A#A52A2A#A52A2A#A52A2A#A52A2A#A52A2A#8B0000#A52A2A#A52A2A#A52A2A#A52A2A#A52A2A#A52A2A#A52A2A#A52A2A#A52A2A#A52A2A#A52A2A#A52A2A#A52A2A#A52A2A#A52A2A#8B0000#A52A2A#A52A2A#A52A2A#A52A2A#A52A2A#A52A2A#A52A2A#A52A2A#A52A2A#A52A2A#A52A2A#A52A2A#A52A2A#A52A2A#A52A2A#8B0000#A52A2A#A52A2A#A52A2A#A52A2A#A52A2A#A52A2A#A52A2A#A52A2A#A52A2A#A52A2A#A52A2A#A52A2A#A52A2A#A52A2A#A52A2A",
"#8B0000#8B0000#8B0000#8B0000#8B0000#8B0000#8B0000#8B0000#8B0000#8B0000#8B0000#8B0000#8B0000#8B0000#8B0000#8B0000#8B0000#8B0000#8B0000#8B0000#8B0000#8B0000#8B0000#8B0000#8B0000#8B0000#8B0000#8B0000#8B0000#8B0000#8B0000#8B0000#8B0000#8B0000#8B0000#8B0000#8B0000#8B0000#8B0000#8B0000#8B0000#8B0000#8B0000#8B0000#8B0000#8B0000#8B0000#8B0000#8B0000#8B0000#8B0000#8B0000#8B0000#8B0000#8B0000#8B0000#8B0000#8B0000#8B0000#8B0000#8B0000#8B0000#8B0000#8B0000",
"#A52A2A#A52A2A#A52A2A#A52A2A#A52A2A#A52A2A#A52A2A#A52A2A#8B0000#A52A2A#A52A2A#A52A2A#A52A2A#A52A2A#A52A2A#A52A2A#A52A2A#A52A2A#A52A2A#A52A2A#A52A2A#A52A2A#A52A2A#A52A2A#8B0000#A52A2A#A52A2A#A52A2A#A52A2A#A52A2A#A52A2A#A52A2A#A52A2A#A52A2A#A52A2A#A52A2A#A52A2A#A52A2A#A52A2A#A52A2A#8B0000#A52A2A#A52A2A#A52A2A#A52A2A#A52A2A#A52A2A#A52A2A#A52A2A#A52A2A#A52A2A#A52A2A#A52A2A#A52A2A#A52A2A#A52A2A#8B0000#A52A2A#A52A2A#A52A2A#A52A2A#A52A2A#A52A2A#A52A2A",
"#CD5C5C#CD5C5C#CD5C5C#CD5C5C#CD5C5C#CD5C5C#CD5C5C#A52A2A#8B0000#A52A2A#CD5C5C#CD5C5C#CD5C5C#CD5C5C#CD5C5C#CD5C5C#CD5C5C#CD5C5C#CD5C5C#CD5C5C#CD5C5C#CD5C5C#CD5C5C#A52A2A#8B0000#A52A2A#CD5C5C#CD5C5C#CD5C5C#CD5C5C#CD5C5C#CD5C5C#CD5C5C#CD5C5C#CD5C5C#CD5C5C#CD5C5C#CD5C5C#CD5C5C#A52A2A#8B0000#A52A2A#CD5C5C#CD5C5C#CD5C5C#CD5C5C#CD5C5C#CD5C5C#CD5C5C#CD5C5C#CD5C5C#CD5C5C#CD5C5C#CD5C5C#CD5C5C#A52A2A#8B0000#A52A2A#CD5C5C#CD5C5C#CD5C5C#CD5C5C#CD5C5C#CD5C5C",
"#CD5C5C#CD5C5C#CD5C5C#CD5C5C#CD5C5C#CD5C5C#CD5C5C#A52A2A#8B0000#A52A2A#CD5C5C#CD5C5C#CD5C5C#CD5C5C#CD5C5C#CD5C5C#CD5C5C#CD5C5C#CD5C5C#CD5C5C#CD5C5C#CD5C5C#CD5C5C#A52A2A#8B0000#A52A2A#CD5C5C#CD5C5C#CD5C5C#CD5C5C#CD5C5C#CD5C5C#CD5C5C#CD5C5C#CD5C5C#CD5C5C#CD5C5C#CD5C5C#CD5C5C#A52A2A#8B0000#A52A2A#CD5C5C#CD5C5C#CD5C5C#CD5C5C#CD5C5C#CD5C5C#CD5C5C#CD5C5C#CD5C5C#CD5C5C#CD5C5C#CD5C5C#CD5C5C#A52A2A#8B0000#A52A2A#CD5C5C#CD5C5C#CD5C5C#CD5C5C#CD5C5C#CD5C5C",
"#B22222#B22222#B22222#B22222#B22222#B22222#B22222#A52A2A#8B0000#A52A2A#B22222#B22222#B22222#B22222#B22222#B22222#B22222#B22222#B22222#B22222#B22222#B22222#B22222#A52A2A#8B0000#A52A2A#B22222#B22222#B22222#B22222#B22222#B22222#B22222#B22222#B22222#B22222#B22222#B22222#B22222#A52A2A#8B0000#A52A2A#B22222#B22222#B22222#B22222#B22222#B22222#B22222#B22222#B22222#B22222#B22222#B22222#B22222#A52A2A#8B0000#A52A2A#B22222#B22222#B22222#B22222#B22222#B22222",
"#B22222#B22222#B22222#B22222#B22222#B22222#B22222#A52A2A#8B0000#A52A2A#B22222#B22222#B22222#B22222#B22222#B22222#B22222#B22222#B22222#B22222#B22222#B22222#B22222#A52A2A#8B0000#A52A2A#B22222#B22222#B22222#B22222#B22222#B22222#B22222#B22222#B22222#B22222#B22222#B22222#B22222#A52A2A#8B0000#A52A2A#B22222#B22222#B22222#B22222#B22222#B22222#B22222#B22222#B22222#B22222#B22222#B22222#B22222#A52A2A#8B0000#A52A2A#B22222#B22222#B22222#B22222#B22222#B22222",
"#B22222#B22222#B22222#B22222#B22222#B22222#B22222#A52A2A#8B0000#A52A2A#B22222#B22222#B22222#B22222#B22222#B22222#B22222#B22222#B22222#B22222#B22222#B22222#B22222#A52A2A#8B0000#A52A2A#B22222#B22222#B22222#B22222#B22222#B22222#B22222#B22222#B22222#B22222#B22222#B22222#B22222#A52A2A#8B0000#A52A2A#B22222#B22222#B22222#B22222#B22222#B22222#B22222#B22222#B22222#B22222#B22222#B22222#B22222#A52A2A#8B0000#A52A2A#B22222#B22222#B22222#B22222#B22222#B22222",
"#A52A2A#A52A2A#A52A2A#A52A2A#A52A2A#A52A2A#A52A2A#A52A2A#8B0000#A52A2A#A52A2A#A52A2A#A52A2A#A52A2A#A52A2A#A52A2A#A52A2A#A52A2A#A52A2A#A52A2A#A52A2A#A52A2A#A52A2A#A52A2A#8B0000#A52A2A#A52A2A#A52A2A#A52A2A#A52A2A#A52A2A#A52A2A#A52A2A#A52A2A#A52A2A#A52A2A#A52A2A#A52A2A#A52A2A#A52A2A#8B0000#A52A2A#A52A2A#A52A2A#A52A2A#A52A2A#A52A2A#A52A2A#A52A2A#A52A2A#A52A2A#A52A2A#A52A2A#A52A2A#A52A2A#A52A2A#8B0000#A52A2A#A52A2A#A52A2A#A52A2A#A52A2A#A52A2A#A52A2A",
"#8B0000#8B0000#8B0000#8B0000#8B0000#8B0000#8B0000#8B0000#8B0000#8B0000#8B0000#8B0000#8B0000#8B0000#8B0000#8B0000#8B0000#8B0000#8B0000#8B0000#8B0000#8B0000#8B0000#8B0000#8B0000#8B0000#8B0000#8B0000#8B0000#8B0000#8B0000#8B0000#8B0000#8B0000#8B0000#8B0000#8B0000#8B0000#8B0000#8B0000#8B0000#8B0000#8B0000#8B0000#8B0000#8B0000#8B0000#8B0000#8B0000#8B0000#8B0000#8B0000#8B0000#8B0000#8B0000#8B0000#8B0000#8B0000#8B0000#8B0000#8B0000#8B0000#8B0000#8B0000",
"#8B0000#A52A2A#A52A2A#A52A2A#A52A2A#A52A2A#A52A2A#A52A2A#A52A2A#A52A2A#A52A2A#A52A2A#A52A2A#A52A2A#A52A2A#A52A2A#8B0000#A52A2A#A52A2A#A52A2A#A52A2A#A52A2A#A52A2A#A52A2A#A52A2A#A52A2A#A52A2A#A52A2A#A52A2A#A52A2A#A52A2A#A52A2A#8B0000#A52A2A#A52A2A#A52A2A#A52A2A#A52A2A#A52A2A#A52A2A#A52A2A#A52A2A#A52A2A#A52A2A#A52A2A#A52A2A#A52A2A#A52A2A#8B0000#A52A2A#A52A2A#A52A2A#A52A2A#A52A2A#A52A2A#A52A2A#A52A2A#A52A2A#A52A2A#A52A2A#A52A2A#A52A2A#A52A2A#A52A2A",
"#8B0000#A52A2A#CD5C5C#CD5C5C#CD5C5C#CD5C5C#CD5C5C#CD5C5C#CD5C5C#CD5C5C#CD5C5C#CD5C5C#CD5C5C#CD5C5C#CD5C5C#A52A2A#8B0000#A52A2A#CD5C5C#CD5C5C#CD5C5C#CD5C5C#CD5C5C#CD5C5C#CD5C5C#CD5C5C#CD5C5C#CD5C5C#CD5C5C#CD5C5C#CD5C5C#A52A2A#8B0000#A52A2A#CD5C5C#CD5C5C#CD5C5C#CD5C5C#CD5C5C#CD5C5C#CD5C5C#CD5C5C#CD5C5C#CD5C5C#CD5C5C#CD5C5C#CD5C5C#A52A2A#8B0000#A52A2A#CD5C5C#CD5C5C#CD5C5C#CD5C5C#CD5C5C#CD5C5C#CD5C5C#CD5C5C#CD5C5C#CD5C5C#CD5C5C#CD5C5C#CD5C5C#A52A2A",
"#8B0000#A52A2A#CD5C5C#CD5C5C#CD5C5C#CD5C5C#CD5C5C#CD5C5C#CD5C5C#CD5C5C#CD5C5C#CD5C5C#CD5C5C#CD5C5C#CD5C5C#A52A2A#8B0000#A52A2A#CD5C5C#CD5C5C#CD5C5C#CD5C5C#CD5C5C#CD5C5C#CD5C5C#CD5C5C#CD5C5C#CD5C5C#CD5C5C#CD5C5C#CD5C5C#A52A2A#8B0000#A52A2A#CD5C5C#CD5C5C#CD5C5C#CD5C5C#CD5C5C#CD5C5C#CD5C5C#CD5C5C#CD5C5C#CD5C5C#CD5C5C#CD5C5C#CD5C5C#A52A2A#8B0000#A52A2A#CD5C5C#CD5C5C#CD5C5C#CD5C5C#CD5C5C#CD5C5C#CD5C5C#CD5C5C#CD5C5C#CD5C5C#CD5C5C#CD5C5C#CD5C5C#A52A2A",
"#8B0000#A52A2A#B22222#B22222#B22222#B22222#B22222#B22222#B22222#B22222#B22222#B22222#B22222#B22222#B22222#A52A2A#8B0000#A52A2A#B22222#B22222#B22222#B22222#B22222#B22222#B22222#B22222#B22222#B22222#B22222#B22222#B22222#A52A2A#8B0000#A52A2A#B22222#B22222#B22222#B22222#B22222#B22222#B22222#B22222#B22222#B22222#B22222#B22222#B22222#A52A2A#8B0000#A52A2A#B22222#B22222#B22222#B22222#B22222#B22222#B22222#B22222#B22222#B22222#B22222#B22222#B22222#A52A2A",
"#8B0000#A52A2A#B22222#B22222#B22222#B22222#B22222#B22222#B22222#B22222#B22222#B22222#B22222#B22222#B22222#A52A2A#8B0000#A52A2A#B22222#B22222#B22222#B22222#B22222#B22222#B22222#B22222#B22222#B22222#B22222#B22222#B22222#A52A2A#8B0000#A52A2A#B22222#B22222#B22222#B22222#B22222#B22222#B22222#B22222#B22222#B22222#B22222#B22222#B22222#A52A2A#8B0000#A52A2A#B22222#B22222#B22222#B22222#B22222#B22222#B22222#B22222#B22222#B22222#B22222#B22222#B22222#A52A2A",
"#8B0000#A52A2A#B22222#B22222#B22222#B22222#B22222#B22222#B22222#B22222#B22222#B22222#B22222#B22222#B22222#A52A2A#8B0000#A52A2A#B22222#B22222#B22222#B22222#B22222#B22222#B22222#B22222#B22222#B22222#B22222#B22222#B22222#A52A2A#8B0000#A52A2A#B22222#B22222#B22222#B22222#B22222#B22222#B22222#B22222#B22222#B22222#B22222#B22222#B22222#A52A2A#8B0000#A52A2A#B22222#B22222#B22222#B22222#B22222#B22222#B22222#B22222#B22222#B22222#B22222#B22222#B22222#A52A2A",
"#8B0000#A52A2A#A52A2A#A52A2A#A52A2A#A52A2A#A52A2A#A52A2A#A52A2A#A52A2A#A52A2A#A52A2A#A52A2A#A52A2A#A52A2A#A52A2A#8B0000#A52A2A#A52A2A#A52A2A#A52A2A#A52A2A#A52A2A#A52A2A#A52A2A#A52A2A#A52A2A#A52A2A#A52A2A#A52A2A#A52A2A#A52A2A#8B0000#A52A2A#A52A2A#A52A2A#A52A2A#A52A2A#A52A2A#A52A2A#A52A2A#A52A2A#A52A2A#A52A2A#A52A2A#A52A2A#A52A2A#A52A2A#8B0000#A52A2A#A52A2A#A52A2A#A52A2A#A52A2A#A52A2A#A52A2A#A52A2A#A52A2A#A52A2A#A52A2A#A52A2A#A52A2A#A52A2A#A52A2A",
"#8B0000#8B0000#8B0000#8B0000#8B0000#8B0000#8B0000#8B0000#8B0000#8B0000#8B0000#8B0000#8B0000#8B0000#8B0000#8B0000#8B0000#8B0000#8B0000#8B0000#8B0000#8B0000#8B0000#8B0000#8B0000#8B0000#8B0000#8B0000#8B0000#8B0000#8B0000#8B0000#8B0000#8B0000#8B0000#8B0000#8B0000#8B0000#8B0000#8B0000#8B0000#8B0000#8B0000#8B0000#8B0000#8B0000#8B0000#8B0000#8B0000#8B0000#8B0000#8B0000#8B0000#8B0000#8B0000#8B0000#8B0000#8B0000#8B0000#8B0000#8B0000#8B0000#8B0000#8B0000",
"#A52A2A#A52A2A#A52A2A#A52A2A#A52A2A#A52A2A#A52A2A#A52A2A#8B0000#A52A2A#A52A2A#A52A2A#A52A2A#A52A2A#A52A2A#A52A2A#A52A2A#A52A2A#A52A2A#A52A2A#A52A2A#A52A2A#A52A2A#A52A2A#8B0000#A52A2A#A52A2A#A52A2A#A52A2A#A52A2A#A52A2A#A52A2A#A52A2A#A52A2A#A52A2A#A52A2A#A52A2A#A52A2A#A52A2A#A52A2A#8B0000#A52A2A#A52A2A#A52A2A#A52A2A#A52A2A#A52A2A#A52A2A#A52A2A#A52A2A#A52A2A#A52A2A#A52A2A#A52A2A#A52A2A#A52A2A#8B0000#A52A2A#A52A2A#A52A2A#A52A2A#A52A2A#A52A2A#A52A2A",
"#CD5C5C#CD5C5C#CD5C5C#CD5C5C#CD5C5C#CD5C5C#CD5C5C#A52A2A#8B0000#A52A2A#CD5C5C#CD5C5C#CD5C5C#CD5C5C#CD5C5C#CD5C5C#CD5C5C#CD5C5C#CD5C5C#CD5C5C#CD5C5C#CD5C5C#CD5C5C#A52A2A#8B0000#A52A2A#CD5C5C#CD5C5C#CD5C5C#CD5C5C#CD5C5C#CD5C5C#CD5C5C#CD5C5C#CD5C5C#CD5C5C#CD5C5C#CD5C5C#CD5C5C#A52A2A#8B0000#A52A2A#CD5C5C#CD5C5C#CD5C5C#CD5C5C#CD5C5C#CD5C5C#CD5C5C#CD5C5C#CD5C5C#CD5C5C#CD5C5C#CD5C5C#CD5C5C#A52A2A#8B0000#A52A2A#CD5C5C#CD5C5C#CD5C5C#CD5C5C#CD5C5C#CD5C5C",
"#CD5C5C#CD5C5C#CD5C5C#CD5C5C#CD5C5C#CD5C5C#CD5C5C#A52A2A#8B0000#A52A2A#CD5C5C#CD5C5C#CD5C5C#CD5C5C#CD5C5C#CD5C5C#CD5C5C#CD5C5C#CD5C5C#CD5C5C#CD5C5C#CD5C5C#CD5C5C#A52A2A#8B0000#A52A2A#CD5C5C#CD5C5C#CD5C5C#CD5C5C#CD5C5C#CD5C5C#CD5C5C#CD5C5C#CD5C5C#CD5C5C#CD5C5C#CD5C5C#CD5C5C#A52A2A#8B0000#A52A2A#CD5C5C#CD5C5C#CD5C5C#CD5C5C#CD5C5C#CD5C5C#CD5C5C#CD5C5C#CD5C5C#CD5C5C#CD5C5C#CD5C5C#CD5C5C#A52A2A#8B0000#A52A2A#CD5C5C#CD5C5C#CD5C5C#CD5C5C#CD5C5C#CD5C5C",
"#B22222#B22222#B22222#B22222#B22222#B22222#B22222#A52A2A#8B0000#A52A2A#B22222#B22222#B22222#B22222#B22222#B22222#B22222#B22222#B22222#B22222#B22222#B22222#B22222#A52A2A#8B0000#A52A2A#B22222#B22222#B22222#B22222#B22222#B22222#B22222#B22222#B22222#B22222#B22222#B22222#B22222#A52A2A#8B0000#A52A2A#B22222#B22222#B22222#B22222#B22222#B22222#B22222#B22222#B22222#B22222#B22222#B22222#B22222#A52A2A#8B0000#A52A2A#B22222#B22222#B22222#B22222#B22222#B22222",
"#B22222#B22222#B22222#B22222#B22222#B22222#B22222#A52A2A#8B0000#A52A2A#B22222#B22222#B22222#B22222#B22222#B22222#B22222#B22222#B22222#B22222#B22222#B22222#B22222#A52A2A#8B0000#A52A2A#B22222#B22222#B22222#B22222#B22222#B22222#B22222#B22222#B22222#B22222#B22222#B22222#B22222#A52A2A#8B0000#A52A2A#B22222#B22222#B22222#B22222#B22222#B22222#B22222#B22222#B22222#B22222#B22222#B22222#B22222#A52A2A#8B0000#A52A2A#B22222#B22222#B22222#B22222#B22222#B22222",
"#B22222#B22222#B22222#B22222#B22222#B22222#B22222#A52A2A#8B0000#A52A2A#B22222#B22222#B22222#B22222#B22222#B22222#B22222#B22222#B22222#B22222#B22222#B22222#B22222#A52A2A#8B0000#A52A2A#B22222#B22222#B22222#B22222#B22222#B22222#B22222#B22222#B22222#B22222#B22222#B22222#B22222#A52A2A#8B0000#A52A2A#B22222#B22222#B22222#B22222#B22222#B22222#B22222#B22222#B22222#B22222#B22222#B22222#B22222#A52A2A#8B0000#A52A2A#B22222#B22222#B22222#B22222#B22222#B22222",
"#A52A2A#A52A2A#A52A2A#A52A2A#A52A2A#A52A2A#A52A2A#A52A2A#8B0000#A52A2A#A52A2A#A52A2A#A52A2A#A52A2A#A52A2A#A52A2A#A52A2A#A52A2A#A52A2A#A52A2A#A52A2A#A52A2A#A52A2A#A52A2A#8B0000#A52A2A#A52A2A#A52A2A#A52A2A#A52A2A#A52A2A#A52A2A#A52A2A#A52A2A#A52A2A#A52A2A#A52A2A#A52A2A#A52A2A#A52A2A#8B0000#A52A2A#A52A2A#A52A2A#A52A2A#A52A2A#A52A2A#A52A2A#A52A2A#A52A2A#A52A2A#A52A2A#A52A2A#A52A2A#A52A2A#A52A2A#8B0000#A52A2A#A52A2A#A52A2A#A52A2A#A52A2A#A52A2A#A52A2A",
"#8B0000#8B0000#8B0000#8B0000#8B0000#8B0000#8B0000#8B0000#8B0000#8B0000#8B0000#8B0000#8B0000#8B0000#8B0000#8B0000#8B0000#8B0000#8B0000#8B0000#8B0000#8B0000#8B0000#8B0000#8B0000#8B0000#8B0000#8B0000#8B0000#8B0000#8B0000#8B0000#8B0000#8B0000#8B0000#8B0000#8B0000#8B0000#8B0000#8B0000#8B0000#8B0000#8B0000#8B0000#8B0000#8B0000#8B0000#8B0000#8B0000#8B0000#8B0000#8B0000#8B0000#8B0000#8B0000#8B0000#8B0000#8B0000#8B0000#8B0000#8B0000#8B0000#8B0000#8B0000",
"#8B0000#A52A2A#A52A2A#A52A2A#A52A2A#A52A2A#A52A2A#A52A2A#A52A2A#A52A2A#A52A2A#A52A2A#A52A2A#A52A2A#A52A2A#A52A2A#8B0000#A52A2A#A52A2A#A52A2A#A52A2A#A52A2A#A52A2A#A52A2A#A52A2A#A52A2A#A52A2A#A52A2A#A52A2A#A52A2A#A52A2A#A52A2A#8B0000#A52A2A#A52A2A#A52A2A#A52A2A#A52A2A#A52A2A#A52A2A#A52A2A#A52A2A#A52A2A#A52A2A#A52A2A#A52A2A#A52A2A#A52A2A#8B0000#A52A2A#A52A2A#A52A2A#A52A2A#A52A2A#A52A2A#A52A2A#A52A2A#A52A2A#A52A2A#A52A2A#A52A2A#A52A2A#A52A2A#A52A2A",
"#8B0000#A52A2A#CD5C5C#CD5C5C#CD5C5C#CD5C5C#CD5C5C#CD5C5C#CD5C5C#CD5C5C#CD5C5C#CD5C5C#CD5C5C#CD5C5C#CD5C5C#A52A2A#8B0000#A52A2A#CD5C5C#CD5C5C#CD5C5C#CD5C5C#CD5C5C#CD5C5C#CD5C5C#CD5C5C#CD5C5C#CD5C5C#CD5C5C#CD5C5C#CD5C5C#A52A2A#8B0000#A52A2A#CD5C5C#CD5C5C#CD5C5C#CD5C5C#CD5C5C#CD5C5C#CD5C5C#CD5C5C#CD5C5C#CD5C5C#CD5C5C#CD5C5C#CD5C5C#A52A2A#8B0000#A52A2A#CD5C5C#CD5C5C#CD5C5C#CD5C5C#CD5C5C#CD5C5C#CD5C5C#CD5C5C#CD5C5C#CD5C5C#CD5C5C#CD5C5C#CD5C5C#A52A2A",
"#8B0000#A52A2A#CD5C5C#CD5C5C#CD5C5C#CD5C5C#CD5C5C#CD5C5C#CD5C5C#CD5C5C#CD5C5C#CD5C5C#CD5C5C#CD5C5C#CD5C5C#A52A2A#8B0000#A52A2A#CD5C5C#CD5C5C#CD5C5C#CD5C5C#CD5C5C#CD5C5C#CD5C5C#CD5C5C#CD5C5C#CD5C5C#CD5C5C#CD5C5C#CD5C5C#A52A2A#8B0000#A52A2A#CD5C5C#CD5C5C#CD5C5C#CD5C5C#CD5C5C#CD5C5C#CD5C5C#CD5C5C#CD5C5C#CD5C5C#CD5C5C#CD5C5C#CD5C5C#A52A2A#8B0000#A52A2A#CD5C5C#CD5C5C#CD5C5C#CD5C5C#CD5C5C#CD5C5C#CD5C5C#CD5C5C#CD5C5C#CD5C5C#CD5C5C#CD5C5C#CD5C5C#A52A2A",
"#8B0000#A52A2A#B22222#B22222#B22222#B22222#B22222#B22222#B22222#B22222#B22222#B22222#B22222#B22222#B22222#A52A2A#8B0000#A52A2A#B22222#B22222#B22222#B22222#B22222#B22222#B22222#B22222#B22222#B22222#B22222#B22222#B22222#A52A2A#8B0000#A52A2A#B22222#B22222#B22222#B22222#B22222#B22222#B22222#B22222#B22222#B22222#B22222#B22222#B22222#A52A2A#8B0000#A52A2A#B22222#B22222#B22222#B22222#B22222#B22222#B22222#B22222#B22222#B22222#B22222#B22222#B22222#A52A2A",
"#8B0000#A52A2A#B22222#B22222#B22222#B22222#B22222#B22222#B22222#B22222#B22222#B22222#B22222#B22222#B22222#A52A2A#8B0000#A52A2A#B22222#B22222#B22222#B22222#B22222#B22222#B22222#B22222#B22222#B22222#B22222#B22222#B22222#A52A2A#8B0000#A52A2A#B22222#B22222#B22222#B22222#B22222#B22222#B22222#B22222#B22222#B22222#B22222#B22222#B22222#A52A2A#8B0000#A52A2A#B22222#B22222#B22222#B22222#B22222#B22222#B22222#B22222#B22222#B22222#B22222#B22222#B22222#A52A2A",
"#8B0000#A52A2A#B22222#B22222#B22222#B22222#B22222#B22222#B22222#B22222#B22222#B22222#B22222#B22222#B22222#A52A2A#8B0000#A52A2A#B22222#B22222#B22222#B22222#B22222#B22222#B22222#B22222#B22222#B22222#B22222#B22222#B22222#A52A2A#8B0000#A52A2A#B22222#B22222#B22222#B22222#B22222#B22222#B22222#B22222#B22222#B22222#B22222#B22222#B22222#A52A2A#8B0000#A52A2A#B22222#B22222#B22222#B22222#B22222#B22222#B22222#B22222#B22222#B22222#B22222#B22222#B22222#A52A2A",
"#8B0000#A52A2A#A52A2A#A52A2A#A52A2A#A52A2A#A52A2A#A52A2A#A52A2A#A52A2A#A52A2A#A52A2A#A52A2A#A52A2A#A52A2A#A52A2A#8B0000#A52A2A#A52A2A#A52A2A#A52A2A#A52A2A#A52A2A#A52A2A#A52A2A#A52A2A#A52A2A#A52A2A#A52A2A#A52A2A#A52A2A#A52A2A#8B0000#A52A2A#A52A2A#A52A2A#A52A2A#A52A2A#A52A2A#A52A2A#A52A2A#A52A2A#A52A2A#A52A2A#A52A2A#A52A2A#A52A2A#A52A2A#8B0000#A52A2A#A52A2A#A52A2A#A52A2A#A52A2A#A52A2A#A52A2A#A52A2A#A52A2A#A52A2A#A52A2A#A52A2A#A52A2A#A52A2A#A52A2A",
"#8B0000#8B0000#8B0000#8B0000#8B0000#8B0000#8B0000#8B0000#8B0000#8B0000#8B0000#8B0000#8B0000#8B0000#8B0000#8B0000#8B0000#8B0000#8B0000#8B0000#8B0000#8B0000#8B0000#8B0000#8B0000#8B0000#8B0000#8B0000#8B0000#8B0000#8B0000#8B0000#8B0000#8B0000#8B0000#8B0000#8B0000#8B0000#8B0000#8B0000#8B0000#8B0000#8B0000#8B0000#8B0000#8B0000#8B0000#8B0000#8B0000#8B0000#8B0000#8B0000#8B0000#8B0000#8B0000#8B0000#8B0000#8B0000#8B0000#8B0000#8B0000#8B0000#8B0000#8B0000",
"#A52A2A#A52A2A#A52A2A#A52A2A#A52A2A#A52A2A#A52A2A#A52A2A#8B0000#A52A2A#A52A2A#A52A2A#A52A2A#A52A2A#A52A2A#A52A2A#A52A2A#A52A2A#A52A2A#A52A2A#A52A2A#A52A2A#A52A2A#A52A2A#8B0000#A52A2A#A52A2A#A52A2A#A52A2A#A52A2A#A52A2A#A52A2A#A52A2A#A52A2A#A52A2A#A52A2A#A52A2A#A52A2A#A52A2A#A52A2A#8B0000#A52A2A#A52A2A#A52A2A#A52A2A#A52A2A#A52A2A#A52A2A#A52A2A#A52A2A#A52A2A#A52A2A#A52A2A#A52A2A#A52A2A#A52A2A#8B0000#A52A2A#A52A2A#A52A2A#A52A2A#A52A2A#A52A2A#A52A2A",
"#CD5C5C#CD5C5C#CD5C5C#CD5C5C#CD5C5C#CD5C5C#CD5C5C#A52A2A#8B0000#A52A2A#CD5C5C#CD5C5C#CD5C5C#CD5C5C#CD5C5C#CD5C5C#CD5C5C#CD5C5C#CD5C5C#CD5C5C#CD5C5C#CD5C5C#CD5C5C#A52A2A#8B0000#A52A2A#CD5C5C#CD5C5C#CD5C5C#CD5C5C#CD5C5C#CD5C5C#CD5C5C#CD5C5C#CD5C5C#CD5C5C#CD5C5C#CD5C5C#CD5C5C#A52A2A#8B0000#A52A2A#CD5C5C#CD5C5C#CD5C5C#CD5C5C#CD5C5C#CD5C5C#CD5C5C#CD5C5C#CD5C5C#CD5C5C#CD5C5C#CD5C5C#CD5C5C#A52A2A#8B0000#A52A2A#CD5C5C#CD5C5C#CD5C5C#CD5C5C#CD5C5C#CD5C5C",
"#CD5C5C#CD5C5C#CD5C5C#CD5C5C#CD5C5C#CD5C5C#CD5C5C#A52A2A#8B0000#A52A2A#CD5C5C#CD5C5C#CD5C5C#CD5C5C#CD5C5C#CD5C5C#CD5C5C#CD5C5C#CD5C5C#CD5C5C#CD5C5C#CD5C5C#CD5C5C#A52A2A#8B0000#A52A2A#CD5C5C#CD5C5C#CD5C5C#CD5C5C#CD5C5C#CD5C5C#CD5C5C#CD5C5C#CD5C5C#CD5C5C#CD5C5C#CD5C5C#CD5C5C#A52A2A#8B0000#A52A2A#CD5C5C#CD5C5C#CD5C5C#CD5C5C#CD5C5C#CD5C5C#CD5C5C#CD5C5C#CD5C5C#CD5C5C#CD5C5C#CD5C5C#CD5C5C#A52A2A#8B0000#A52A2A#CD5C5C#CD5C5C#CD5C5C#CD5C5C#CD5C5C#CD5C5C",
"#B22222#B22222#B22222#B22222#B22222#B22222#B22222#A52A2A#8B0000#A52A2A#B22222#B22222#B22222#B22222#B22222#B22222#B22222#B22222#B22222#B22222#B22222#B22222#B22222#A52A2A#8B0000#A52A2A#B22222#B22222#B22222#B22222#B22222#B22222#B22222#B22222#B22222#B22222#B22222#B22222#B22222#A52A2A#8B0000#A52A2A#B22222#B22222#B22222#B22222#B22222#B22222#B22222#B22222#B22222#B22222#B22222#B22222#B22222#A52A2A#8B0000#A52A2A#B22222#B22222#B22222#B22222#B22222#B22222",
"#B22222#B22222#B22222#B22222#B22222#B22222#B22222#A52A2A#8B0000#A52A2A#B22222#B22222#B22222#B22222#B22222#B22222#B22222#B22222#B22222#B22222#B22222#B22222#B22222#A52A2A#8B0000#A52A2A#B22222#B22222#B22222#B22222#B22222#B22222#B22222#B22222#B22222#B22222#B22222#B22222#B22222#A52A2A#8B0000#A52A2A#B22222#B22222#B22222#B22222#B22222#B22222#B22222#B22222#B22222#B22222#B22222#B22222#B22222#A52A2A#8B0000#A52A2A#B22222#B22222#B22222#B22222#B22222#B22222",
"#B22222#B22222#B22222#B22222#B22222#B22222#B22222#A52A2A#8B0000#A52A2A#B22222#B22222#B22222#B22222#B22222#B22222#B22222#B22222#B22222#B22222#B22222#B22222#B22222#A52A2A#8B0000#A52A2A#B22222#B22222#B22222#B22222#B22222#B22222#B22222#B22222#B22222#B22222#B22222#B22222#B22222#A52A2A#8B0000#A52A2A#B22222#B22222#B22222#B22222#B22222#B22222#B22222#B22222#B22222#B22222#B22222#B22222#B22222#A52A2A#8B0000#A52A2A#B22222#B22222#B22222#B22222#B22222#B22222",
"#A52A2A#A52A2A#A52A2A#A52A2A#A52A2A#A52A2A#A52A2A#A52A2A#8B0000#A52A2A#A52A2A#A52A2A#A52A2A#A52A2A#A52A2A#A52A2A#A52A2A#A52A2A#A52A2A#A52A2A#A52A2A#A52A2A#A52A2A#A52A2A#8B0000#A52A2A#A52A2A#A52A2A#A52A2A#A52A2A#A52A2A#A52A2A#A52A2A#A52A2A#A52A2A#A52A2A#A52A2A#A52A2A#A52A2A#A52A2A#8B0000#A52A2A#A52A2A#A52A2A#A52A2A#A52A2A#A52A2A#A52A2A#A52A2A#A52A2A#A52A2A#A52A2A#A52A2A#A52A2A#A52A2A#A52A2A#8B0000#A52A2A#A52A2A#A52A2A#A52A2A#A52A2A#A52A2A#A52A2A"
};