/* XPM */
static char *wood_wall[] = {
/* width height num_colors chars_per_pixel */
"64 64 4 1",
/* colors */
"  c #3E2723", /* Grieta entre tablones */
". c #5D4037", /* Madera oscura */
"X c #795548", /* Madera base */
"o c #8D6E63", /* Vetas claras */
/* pixels */
" XXXXXX.o  XXXXX.oo  XXXXXX.o  XXXXX.oo  XXXXXX.o  XXXXX.oo  XXX",
" XXXXXX.o  XXXXX.oo  XXXXXX.o  XXXXX.oo  XXXXXX.o  XXXXX.oo  XXX",
" XoXXXX.X  XoXXX.Xo  XoXXXX.X  XoXXX.Xo  XoXXXX.X  XoXXX.Xo  XoX",
" XoXXXX.X  XoXXX.Xo  XoXXXX.X  XoXXX.Xo  XoXXXX.X  XoXXX.Xo  XoX",
" XXoXXX.X  XXoXX.Xo  XXoXXX.X  XXoXX.Xo  XXoXXX.X  XXoXX.Xo  XXo",
" XXoXXX.X  XXoXX.Xo  XXoXXX.X  XXoXX.Xo  XXoXXX.X  XXoXX.Xo  XXo",
" XXXoXX.X  XXXoX.XX  XXXoXX.X  XXXoX.XX  XXXoXX.X  XXXoX.XX  XXX",
" XXXoXX.X  XXXoX.XX  XXXoXX.X  XXXoX.XX  XXXoXX.X  XXXoX.XX  XXX",
" XXXXXo.X  XXXXo.XX  XXXXXo.X  XXXXo.XX  XXXXXo.X  XXXXo.XX  XXX",
" XXXXXo.X  XXXXo.XX  XXXXXo.X  XXXXo.XX  XXXXXo.X  XXXXo.XX  XXX",
" XXXXXX.X  XXXXX.XX  XXXXXX.X  XXXXX.XX  XXXXXX.X  XXXXX.XX  XXX",
" XXXXXX.X  XXXXX.XX  XXXXXX.X  XXXXX.XX  XXXXXX.X  XXXXX.XX  XXX",
" XXXXXX.X  XXXXX.XX  XXXXXX.X  XXXXX.XX  XXXXXX.X  XXXXX.XX  XXX",
" XXXXXX.X  XXXXX.XX  XXXXXX.X  XXXXX.XX  XXXXXX.X  XXXXX.XX  XXX",
" XXXXXX.X  XXXXX.XX  XXXXXX.X  XXXXX.XX  XXXXXX.X  XXXXX.XX  XXX",
" XXXXXX.X  XXXXX.XX  XXXXXX.X  XXXXX.XX  XXXXXX.X  XXXXX.XX  XXX",
" XXXXXX.o  XXXXX.oo  XXXXXX.o  XXXXX.oo  XXXXXX.o  XXXXX.oo  XXX",
" XXXXXX.o  XXXXX.oo  XXXXXX.o  XXXXX.oo  XXXXXX.o  XXXXX.oo  XXX",
" XoXXXX.X  XoXXX.Xo  XoXXXX.X  XoXXX.Xo  XoXXXX.X  XoXXX.Xo  XoX",
" XoXXXX.X  XoXXX.Xo  XoXXXX.X  XoXXX.Xo  XoXXXX.X  XoXXX.Xo  XoX",
" XXoXXX.X  XXoXX.Xo  XXoXXX.X  XXoXX.Xo  XXoXXX.X  XXoXX.Xo  XXo",
" XXoXXX.X  XXoXX.Xo  XXoXXX.X  XXoXX.Xo  XXoXXX.X  XXoXX.Xo  XXo",
" XXXoXX.X  XXXoX.XX  XXXoXX.X  XXXoX.XX  XXXoXX.X  XXXoX.XX  XXX",
" XXXoXX.X  XXXoX.XX  XXXoXX.X  XXXoX.XX  XXXoXX.X  XXXoX.XX  XXX",
" XXXXXo.X  XXXXo.XX  XXXXXo.X  XXXXo.XX  XXXXXo.X  XXXXo.XX  XXX",
" XXXXXo.X  XXXXo.XX  XXXXXo.X  XXXXo.XX  XXXXXo.X  XXXXo.XX  XXX",
" XXXXXX.X  XXXXX.XX  XXXXXX.X  XXXXX.XX  XXXXXX.X  XXXXX.XX  XXX",
" XXXXXX.X  XXXXX.XX  XXXXXX.X  XXXXX.XX  XXXXXX.X  XXXXX.XX  XXX",
" XXXXXX.X  XXXXX.XX  XXXXXX.X  XXXXX.XX  XXXXXX.X  XXXXX.XX  XXX",
" XXXXXX.X  XXXXX.XX  XXXXXX.X  XXXXX.XX  XXXXXX.X  XXXXX.XX  XXX",
" XXXXXX.X  XXXXX.XX  XXXXXX.X  XXXXX.XX  XXXXXX.X  XXXXX.XX  XXX",
" XXXXXX.X  XXXXX.XX  XXXXXX.X  XXXXX.XX  XXXXXX.X  XXXXX.XX  XXX",
" XXXXXX.o  XXXXX.oo  XXXXXX.o  XXXXX.oo  XXXXXX.o  XXXXX.oo  XXX",
" XXXXXX.o  XXXXX.oo  XXXXXX.o  XXXXX.oo  XXXXXX.o  XXXXX.oo  XXX",
" XoXXXX.X  XoXXX.Xo  XoXXXX.X  XoXXX.Xo  XoXXXX.X  XoXXX.Xo  XoX",
" XoXXXX.X  XoXXX.Xo  XoXXXX.X  XoXXX.Xo  XoXXXX.X  XoXXX.Xo  XoX",
" XXoXXX.X  XXoXX.Xo  XXoXXX.X  XXoXX.Xo  XXoXXX.X  XXoXX.Xo  XXo",
" XXoXXX.X  XXoXX.Xo  XXoXXX.X  XXoXX.Xo  XXoXXX.X  XXoXX.Xo  XXo",
" XXXoXX.X  XXXoX.XX  XXXoXX.X  XXXoX.XX  XXXoXX.X  XXXoX.XX  XXX",
" XXXoXX.X  XXXoX.XX  XXXoXX.X  XXXoX.XX  XXXoXX.X  XXXoX.XX  XXX",
" XXXXXo.X  XXXXo.XX  XXXXXo.X  XXXXo.XX  XXXXXo.X  XXXXo.XX  XXX",
" XXXXXo.X  XXXXo.XX  XXXXXo.X  XXXXo.XX  XXXXXo.X  XXXXo.XX  XXX",
" XXXXXX.X  XXXXX.XX  XXXXXX.X  XXXXX.XX  XXXXXX.X  XXXXX.XX  XXX",
" XXXXXX.X  XXXXX.XX  XXXXXX.X  XXXXX.XX  XXXXXX.X  XXXXX.XX  XXX",
" XXXXXX.X  XXXXX.XX  XXXXXX.X  XXXXX.XX  XXXXXX.X  XXXXX.XX  XXX",
" XXXXXX.X  XXXXX.XX  XXXXXX.X  XXXXX.XX  XXXXXX.X  XXXXX.XX  XXX",
" XXXXXX.X  XXXXX.XX  XXXXXX.X  XXXXX.XX  XXXXXX.X  XXXXX.XX  XXX",
" XXXXXX.X  XXXXX.XX  XXXXXX.X  XXXXX.XX  XXXXXX.X  XXXXX.XX  XXX",
" XXXXXX.o  XXXXX.oo  XXXXXX.o  XXXXX.oo  XXXXXX.o  XXXXX.oo  XXX",
" XXXXXX.o  XXXXX.oo  XXXXXX.o  XXXXX.oo  XXXXXX.o  XXXXX.oo  XXX",
" XoXXXX.X  XoXXX.Xo  XoXXXX.X  XoXXX.Xo  XoXXXX.X  XoXXX.Xo  XoX",
" XoXXXX.X  XoXXX.Xo  XoXXXX.X  XoXXX.Xo  XoXXXX.X  XoXXX.Xo  XoX",
" XXoXXX.X  XXoXX.Xo  XXoXXX.X  XXoXX.Xo  XXoXXX.X  XXoXX.Xo  XXo",
" XXoXXX.X  XXoXX.Xo  XXoXXX.X  XXoXX.Xo  XXoXXX.X  XXoXX.Xo  XXo",
" XXXoXX.X  XXXoX.XX  XXXoXX.X  XXXoX.XX  XXXoXX.X  XXXoX.XX  XXX",
" XXXoXX.X  XXXoX.XX  XXXoXX.X  XXXoX.XX  XXXoXX.X  XXXoX.XX  XXX",
" XXXXXo.X  XXXXo.XX  XXXXXo.X  XXXXo.XX  XXXXXo.X  XXXXo.XX  XXX",
" XXXXXo.X  XXXXo.XX  XXXXXo.X  XXXXo.XX  XXXXXo.X  XXXXo.XX  XXX",
" XXXXXX.X  XXXXX.XX  XXXXXX.X  XXXXX.XX  XXXXXX.X  XXXXX.XX  XXX",
" XXXXXX.X  XXXXX.XX  XXXXXX.X  XXXXX.XX  XXXXXX.X  XXXXX.XX  XXX",
" XXXXXX.X  XXXXX.XX  XXXXXX.X  XXXXX.XX  XXXXXX.X  XXXXX.XX  XXX",
" XXXXXX.X  XXXXX.XX  XXXXXX.X  XXXXX.XX  XXXXXX.X  XXXXX.XX  XXX",
" XXXXXX.X  XXXXX.XX  XXXXXX.X  XXXXX.XX  XXXXXX.X  XXXXX.XX  XXX",
" XXXXXX.X  XXXXX.XX  XXXXXX.X  XXXXX.XX  XXXXXX.X  XXXXX.XX  XXX"
};