/* XPM */
static char *stone_wall[] = {
/* width height num_colors chars_per_pixel */
"64 64 4 1",
/* colors */
"  c #1A1A1A", /* Sombras profundas */
". c #404040", /* Piedra oscura */
"X c #606060", /* Piedra base */
"o c #808080", /* Piedra clara/aristas */
/* pixels */
"                                                                ",
" ooooooXXXXXXX...  ooooooooooXXXXXXXX....  oooooooooooXXXXXXX.. ",
" oXXXXXXXXXXXXX..  oXXXXXXXXXXXXXXXXXX...  oXXXXXXXXXXXXXXXXX.. ",
" oXXXXXXXXXXXXX..  oXXXXXXXXXXXXXXXXXX...  oXXXXXXXXXXXXXXXXX.. ",
" oXXXXXXXXXXXXX..  oXXXXXXXXXXXXXXXXXX...  oXXXXXXXXXXXXXXXXX.. ",
" oXXXXXXXXXXXXX..  oXXXXXXXXXXXXXXXXXX...  oXXXXXXXXXXXXXXXXX.. ",
" oXXXXXXXXXXXXX..  oXXXXXXXXXXXXXXXXXX...  oXXXXXXXXXXXXXXXXX.. ",
" oXXXXXXXXXXXXX..  oXXXXXXXXXXXXXXXXXX...  oXXXXXXXXXXXXXXXXX.. ",
" ........  ......  ..................  ..  .................  . ",,
" oooooooooooooXXXXXXX....  oooooooooooooXXXXXXX....  oooooooooo ",
" oXXXXXXXXXXXXXXXXXXX...  oXXXXXXXXXXXXXXXXXXXX...  oXXXXXXXXXX ",
" oXXXXXXXXXXXXXXXXXXX...  oXXXXXXXXXXXXXXXXXXXX...  oXXXXXXXXXX ",
" oXXXXXXXXXXXXXXXXXXX...  oXXXXXXXXXXXXXXXXXXXX...  oXXXXXXXXXX ",
" oXXXXXXXXXXXXXXXXXXX...  oXXXXXXXXXXXXXXXXXXXX...  oXXXXXXXXXX ",
" oXXXXXXXXXXXXXXXXXXX...  oXXXXXXXXXXXXXXXXXXXX...  oXXXXXXXXXX ",
" oXXXXXXXXXXXXXXXXXXX...  oXXXXXXXXXXXXXXXXXXXX...  oXXXXXXXXXX ",
" oXXXXXXXXXXXXXXXXXXX...  oXXXXXXXXXXXXXXXXXXXX...  oXXXXXXXXXX ",
" ...................  ...  ...................  ...  .......... ",
"                                                                ",
" ooooooXXXXXXX...  ooooooooooXXXXXXXX....  oooooooooooXXXXXXX.. ",
" oXXXXXXXXXXXXX..  oXXXXXXXXXXXXXXXXXX...  oXXXXXXXXXXXXXXXXX.. ",
" oXXXXXXXXXXXXX..  oXXXXXXXXXXXXXXXXXX...  oXXXXXXXXXXXXXXXXX.. ",
" oXXXXXXXXXXXXX..  oXXXXXXXXXXXXXXXXXX...  oXXXXXXXXXXXXXXXXX.. ",
" oXXXXXXXXXXXXX..  oXXXXXXXXXXXXXXXXXX...  oXXXXXXXXXXXXXXXXX.. ",
" oXXXXXXXXXXXXX..  oXXXXXXXXXXXXXXXXXX...  oXXXXXXXXXXXXXXXXX.. ",
" oXXXXXXXXXXXXX..  oXXXXXXXXXXXXXXXXXX...  oXXXXXXXXXXXXXXXXX.. 
"                                                                "",
" oXXXXXXXXXXXXX..  oXXXXXXXXXXXXXXXXXX...  oXXXXXXXXXXXXXXXXX.. ",
" ........  ......  ..................  ..  .................  . ",
"                                                                ",
" oooooooooooooXXXXXXX....  oooooooooooooXXXXXXX....  oooooooooo ",
" oXXXXXXXXXXXXXXXXXXX...  oXXXXXXXXXXXXXXXXXXXX...  oXXXXXXXXXX ",
" oXXXXXXXXXXXXXXXXXXX...  oXXXXXXXXXXXXXXXXXXXX...  oXXXXXXXXXX ",
" oXXXXXXXXXXXXXXXXXXX...  oXXXXXXXXXXXXXXXXXXXX...  oXXXXXXXXXX ",
" oXXXXXXXXXXXXXXXXXXX...  oXXXXXXXXXXXXXXXXXXXX...  oXXXXXXXXXX ",
" oXXXXXXXXXXXXXXXXXXX...  oXXXXXXXXXXXXXXXXXXXX...  oXXXXXXXXXX ",
" oXXXXXXXXXXXXXXXXXXX...  oXXXXXXXXXXXXXXXXXXXX...  oXXXXXXXXXX ",
" oXXXXXXXXXXXXXXXXXXX...  oXXXXXXXXXXXXXXXXXXXX...  oXXXXXXXXXX ",
" ...................  ...  ...................  ...  .......... ",
"                                                                ",
" ooooooXXXXXXX...  ooooooooooXXXXXXXX....  oooooooooooXXXXXXX.. ",
" oXXXXXXXXXXXXX..  oXXXXXXXXXXXXXXXXXX...  oXXXXXXXXXXXXXXXXX.. ",
" oXXXXXXXXXXXXX..  oXXXXXXXXXXXXXXXXXX...  oXXXXXXXXXXXXXXXXX.. ",
" oXXXXXXXXXXXXX..  oXXXXXXXXXXXXXXXXXX...  oXXXXXXXXXXXXXXXXX.. ",
" oXXXXXXXXXXXXX..  oXXXXXXXXXXXXXXXXXX...  oXXXXXXXXXXXXXXXXX.. ",
" oXXXXXXXXXXXXX..  oXXXXXXXXXXXXXXXXXX...  oXXXXXXXXXXXXXXXXX.. ",
" oXXXXXXXXXXXXX..  oXXXXXXXXXXXXXXXXXX...  oXXXXXXXXXXXXXXXXX.. ",
" oXXXXXXXXXXXXX..  oXXXXXXXXXXXXXXXXXX...  oXXXXXXXXXXXXXXXXX.. ",
" ........  ......  ..................  ..  .................  . ",
"                                                                ",
" oooooooooooooXXXXXXX....  oooooooooooooXXXXXXX....  oooooooooo ",
" oXXXXXXXXXXXXXXXXXXX...  oXXXXXXXXXXXXXXXXXXXX...  oXXXXXXXXXX ",
" oXXXXXXXXXXXXXXXXXXX...  oXXXXXXXXXXXXXXXXXXXX...  oXXXXXXXXXX ",
" oXXXXXXXXXXXXXXXXXXX...  oXXXXXXXXXXXXXXXXXXXX...  oXXXXXXXXXX ",
" oXXXXXXXXXXXXXXXXXXX...  oXXXXXXXXXXXXXXXXXXXX...  oXXXXXXXXXX ",
" oXXXXXXXXXXXXXXXXXXX...  oXXXXXXXXXXXXXXXXXXXX...  oXXXXXXXXXX ",
" oXXXXXXXXXXXXXXXXXXX...  oXXXXXXXXXXXXXXXXXXXX...  oXXXXXXXXXX ",
" oXXXXXXXXXXXXXXXXXXX...  oXXXXXXXXXXXXXXXXXXXX...  oXXXXXXXXXX ",
" ...................  ...  ...................  ...  .......... ",
"                                                                ",
"                                                                ",
"                                                                ",
"                                                                ",
"                                                                "
};